src/assets/images/contacts-icon-5.svg

<svg width="30" height="30" viewBox="0 0 30 30" fill="none" xmlns="http://www.w3.org/2000/svg">
<path d="M15 0C6.71625 0 0 6.71625 0 15C0 23.2837 6.71625 30 15 30C23.2837 30 30 23.2837 30 15C30 6.71625 23.2837 0 15 0ZM9.37 6.75375C10.4225 6.75375 11.1238 7.455 11.1238 8.39C11.1238 9.325 10.4225 10.0262 9.25375 10.0262C8.20125 10.0275 7.5 9.325 7.5 8.39C7.5 7.455 8.20125 6.75375 9.37 6.75375ZM11.25 21.25H7.5V11.25H11.25V21.25ZM23.75 21.25H20.22V15.785C20.22 14.2738 19.2788 13.925 18.9263 13.925C18.5738 13.925 17.3962 14.1575 17.3962 15.785C17.3962 16.0175 17.3962 21.25 17.3962 21.25H13.75V11.25H17.3975V12.645C17.8675 11.8313 18.8087 11.25 20.5737 11.25C22.3387 11.25 23.75 12.645 23.75 15.785V21.25Z" fill="white"/>
</svg>

<svg xmlns="http://www.w3.org/2000/svg" width="30" height="30" fill="none"><path d="M15 0C6.716 0 0 6.716 0 15s6.716 15 15 15 15-6.716 15-15S23.284 0 15 0zM9.37 6.754c1.053 0 1.754.701 1.754 1.636s-.701 1.636-1.87 1.636C8.201 10.028 7.5 9.325 7.5 8.39s.701-1.636 1.87-1.636zm1.88 14.496H7.5v-10h3.75v10zm12.5 0h-3.53v-5.465c0-1.511-.941-1.86-1.294-1.86s-1.53.232-1.53 1.86v5.465H13.75v-10h3.648v1.395c.47-.814 1.411-1.395 3.176-1.395s3.176 1.395 3.176 4.535v5.465z" fill="#fff"/></svg>
